; G-Code generated by Simplify3D(R) Version 3.1.0
; May 30, 2017 at 10:31:34 AM
; Settings Summary
;   processName,Process1
;   applyToModels,bacteriophage_T4-mod-2
;   profileName,MakerGear M2 (24V V4 hotend) (modified)
;   profileVersion,2017-05-24 15:29:13
;   baseProfile,
;   printMaterial,PLA
;   printQuality,Medium
;   printExtruders,
;   extruderName,Primary Extruder
;   extruderToolheadNumber,0
;   extruderDiameter,0.35
;   extruderAutoWidth,0
;   extruderWidth,0.4
;   extrusionMultiplier,0.9
;   extruderUseRetract,1
;   extruderRetractionDistance,1
;   extruderExtraRestartDistance,0
;   extruderRetractionZLift,0
;   extruderRetractionSpeed,2400
;   extruderUseCoasting,0
;   extruderCoastingDistance,0.2
;   extruderUseWipe,0
;   extruderWipeDistance,5
;   primaryExtruder,0
;   layerHeight,0.2
;   topSolidLayers,3
;   bottomSolidLayers,3
;   perimeterOutlines,1
;   printPerimetersInsideOut,1
;   startPointOption,2
;   startPointOriginX,0
;   startPointOriginY,0
;   startPointOriginZ,300
;   sequentialIslands,0
;   spiralVaseMode,0
;   firstLayerHeightPercentage,90
;   firstLayerWidthPercentage,100
;   firstLayerUnderspeed,0.5
;   useRaft,0
;   raftExtruder,0
;   raftLayers,3
;   raftOffset,3
;   raftSeparationDistance,0.14
;   raftInfill,85
;   disableRaftBaseLayers,0
;   useSkirt,1
;   skirtExtruder,0
;   skirtLayers,1
;   skirtOutlines,2
;   skirtOffset,4
;   usePrimePillar,0
;   primePillarExtruder,999
;   primePillarWidth,12
;   primePillarLocation,7
;   primePillarSpeedMultiplier,1
;   useOozeShield,0
;   oozeShieldExtruder,999
;   oozeShieldOffset,2
;   oozeShieldOutlines,1
;   oozeShieldSidewallShape,1
;   oozeShieldSidewallAngle,30
;   oozeShieldSpeedMultiplier,1
;   infillExtruder,0
;   internalInfillPattern,Rectilinear
;   externalInfillPattern,Rectilinear
;   infillPercentage,20
;   outlineOverlapPercentage,15
;   infillExtrusionWidthPercentage,100
;   minInfillLength,5
;   infillLayerInterval,1
;   infillAngles,45,-45
;   overlapInfillAngles,0
;   generateSupport,1
;   supportExtruder,0
;   supportInfillPercentage,30
;   supportExtraInflation,0
;   denseSupportLayers,0
;   denseSupportInfillPercentage,70
;   supportLayerInterval,1
;   supportHorizontalPartOffset,0.3
;   supportUpperSeparationLayers,1
;   supportLowerSeparationLayers,1
;   supportType,0
;   supportGridSpacing,4
;   maxOverhangAngle,45
;   supportAngles,0
;   temperatureName,Primary Extruder,Heated Bed
;   temperatureNumber,0,2
;   temperatureSetpointCount,1,1
;   temperatureSetpointLayers,1,1
;   temperatureSetpointTemperatures,215,70
;   temperatureStabilizeAtStartup,1,1
;   temperatureHeatedBed,0,1
;   temperatureRelayBetweenLayers,0,0
;   temperatureRelayBetweenLoops,0,0
;   fanLayers,1,2
;   fanSpeeds,0,100
;   blipFanToFullPower,1
;   adjustSpeedForCooling,1
;   minSpeedLayerTime,15
;   minCoolingSpeedSlowdown,20
;   increaseFanForCooling,0
;   minFanLayerTime,45
;   maxCoolingFanSpeed,100
;   increaseFanForBridging,0
;   bridgingFanSpeed,100
;   use5D,1
;   relativeEdistances,0
;   allowEaxisZeroing,1
;   independentExtruderAxes,0
;   includeM10123,0
;   stickySupport,1
;   applyToolheadOffsets,0
;   gcodeXoffset,0
;   gcodeYoffset,0
;   gcodeZoffset,0
;   overrideMachineDefinition,1
;   machineTypeOverride,0
;   strokeXoverride,200
;   strokeYoverride,250
;   strokeZoverride,200
;   originOffsetXoverride,0
;   originOffsetYoverride,0
;   originOffsetZoverride,0
;   homeXdirOverride,-1
;   homeYdirOverride,-1
;   homeZdirOverride,-1
;   flipXoverride,1
;   flipYoverride,-1
;   flipZoverride,1
;   toolheadOffsets,0,0|0,0|0,0|0,0|0,0|0,0
;   overrideFirmwareConfiguration,1
;   firmwareTypeOverride,RepRap (Marlin/Repetier/Sprinter)
;   GPXconfigOverride,r2
;   baudRateOverride,115200
;   overridePrinterModels,1
;   printerModelsOverride,MakerGear_M2Single.stl
;   startingGcode,M108 S255 ; turn on M2 fans,G28 ; home all axes,G1 Y50 Z0.3 F9600 ; move forward to avoid binder clips,G1 X205 Z10 ; move off platform,G1 Z0.4 ; position nozzle,G92 E0 ; zero extruder,G1 E25 F225 ; purge nozzle,G92 E0 ; zero extruder,G1 X190 Z0.1 E1.0 F1200 ; slow wipe,G1 X180 Z0.25 ; lift
;   layerChangeGcode,
;   retractionGcode,
;   toolChangeGcode,
;   endingGcode,M104 S0 ; turn off extruder,M140 S0 ; turn off bed,G91 ; relative mode,G1 Z10 ; lift 10mm,G90 ; absolute mode,G28 X0 ; home X axis,M84 ; disable motors
;   exportFileFormat,gcode
;   celebration,0
;   celebrationSong,Random Song
;   postProcessing,
;   defaultSpeed,4800
;   outlineUnderspeed,0.6
;   solidInfillUnderspeed,0.8
;   supportUnderspeed,0.8
;   rapidXYspeed,18000
;   rapidZspeed,1200
;   minBridgingArea,50
;   bridgingExtraInflation,0
;   bridgingExtrusionMultiplier,1
;   bridgingSpeedMultiplier,1
;   filamentDiameter,1.75
;   filamentPricePerKg,35
;   filamentDensity,1.25
;   useMinPrintHeight,0
;   minPrintHeight,0
;   useMaxPrintHeight,0
;   maxPrintHeight,0
;   useDiaphragm,0
;   diaphragmLayerInterval,20
;   robustSlicing,1
;   mergeAllIntoSolid,0
;   onlyRetractWhenCrossingOutline,1
;   retractBetweenLayers,1
;   useRetractionMinTravel,0
;   retractionMinTravel,3
;   retractWhileWiping,0
;   onlyWipeOutlines,1
;   avoidCrossingOutline,0
;   maxMovementDetourFactor,3
;   toolChangeRetractionDistance,12
;   toolChangeExtraRestartDistance,-0.5
;   toolChangeRetractionSpeed,600
;   allowThinWallGapFill,1
;   thinWallAllowedOverlapPercentage,10
;   horizontalSizeCompensation,0
G90
M82
M106 S0
M140 S70
M190 S70
M104 S215 T0
M109 S215 T0
M108 S255 ; turn on M2 fans
G28 ; home all axes
G1 Y50 Z0.3 F9600 ; move forward to avoid binder clips
G1 X205 Z10 ; move off platform
G1 Z0.4 ; position nozzle
G92 E0 ; zero extruder
G1 E25 F225 ; purge nozzle
G92 E0 ; zero extruder
G1 X190 Z0.1 E1.0 F1200 ; slow wipe
G1 X180 Z0.25 ; lift
G92 E0
G1 E-1.0000 F2400
G1 Z0.180 F1200
; layer 1, Z = 0.18
T0
; tool H0.200 W0.400
; skirt
G1 X60.248 Y90.628 F18000
G1 E0.0000 F720
G92 E0
G1 X61.230 Y90.060 E0.0339 F2400
G1 X61.302 Y90.030 E0.0363
G1 X63.097 Y89.549 E0.0919
G1 X63.153 Y89.540 E0.0936
G1 X63.963 Y89.480 E0.1179
G1 X64.020 Y89.481 E0.1196
G1 X64.967 Y89.591 E0.1482
G1 X64.989 Y89.594 E0.1488
G1 X65.299 Y89.653 E0.1583
G1 X65.320 Y89.658 E0.1589
G1 X67.187 Y90.158 E0.2168
G1 X67.259 Y90.188 E0.2191
G1 X68.240 Y90.754 E0.2530
G1 X68.302 Y90.802 E0.2554
G1 X69.756 Y92.256 E0.3169
G1 X69.782 Y92.285 E0.3181
G1 X70.125 Y92.732 E0.3349
G1 X70.146 Y92.765 E0.3361
G1 X70.875 Y94.027 E0.3797
G1 X70.893 Y94.062 E0.3809
G1 X71.108 Y94.583 E0.3978
G1 X71.121 Y94.621 E0.3990
G1 X71.653 Y96.607 E0.4605
G1 X71.663 Y96.685 E0.4629
G1 X71.663 Y97.816 E0.4968
G1 X71.653 Y97.894 E0.4991
G1 X71.154 Y99.757 E0.5568
G1 X71.148 Y99.778 E0.5575
G1 X71.045 Y100.074 E0.5669
G1 X71.037 Y100.095 E0.5675
G1 X70.659 Y100.969 E0.5961
G1 X70.632 Y101.019 E0.5978
G1 X70.176 Y101.691 E0.6221
G1 X70.140 Y101.735 E0.6238
G1 X68.826 Y103.052 E0.6795
G1 X68.763 Y103.100 E0.6818
G1 X67.781 Y103.667 E0.7158
G1 X67.708 Y103.698 E0.7181
G1 X65.914 Y104.178 E0.7737
G1 X65.858 Y104.188 E0.7754
G1 X65.049 Y104.247 E0.7997
G1 X64.992 Y104.246 E0.8014
G1 X64.048 Y104.137 E0.8299
G1 X64.026 Y104.134 E0.8305
G1 X63.716 Y104.075 E0.8400
G1 X63.695 Y104.070 E0.8406
G1 X61.825 Y103.569 E0.8986
G1 X61.753 Y103.539 E0.9009
G1 X60.772 Y102.973 E0.9348
G1 X60.710 Y102.926 E0.9372
G1 X59.255 Y101.471 E0.9987
G1 X59.229 Y101.442 E0.9999
G1 X58.886 Y100.994 E1.0168
G1 X58.864 Y100.962 E1.0180
G1 X58.136 Y99.700 E1.0616
G1 X58.118 Y99.664 E1.0628
G1 X57.903 Y99.144 E1.0796
G1 X57.890 Y99.106 E1.0808
G1 X57.358 Y97.121 E1.1423
G1 X57.348 Y97.043 E1.1447
G1 X57.348 Y95.911 E1.1786
G1 X57.358 Y95.833 E1.1809
G1 X57.858 Y93.967 E1.2388
G1 X57.864 Y93.945 E1.2394
G1 X57.969 Y93.647 E1.2489
G1 X57.977 Y93.626 E1.2496
G1 X58.354 Y92.754 E1.2780
G1 X58.382 Y92.705 E1.2797
G1 X58.837 Y92.034 E1.3039
G1 X58.873 Y91.991 E1.3056
G1 X60.185 Y90.676 E1.3613
G1 X60.248 Y90.628 E1.3636
G92 E0
G1 E-1.0000 F2400
G1 X74.750 Y115.739 F18000
G1 E0.0000 F2400
G92 E0
G1 X75.730 Y115.173 E0.0339 F2400
G1 X75.803 Y115.143 E0.0362
G1 X77.751 Y114.621 E0.0966
G1 X77.829 Y114.611 E0.0990
G1 X77.930 Y114.611 E0.1020
G1 X80.106 Y114.028 E0.1694
G1 X80.184 Y114.018 E0.1718
G1 X81.316 Y114.018 E0.2057
G1 X81.394 Y114.028 E0.2080
G1 X83.570 Y114.611 E0.2754
G1 X83.672 Y114.611 E0.2785
G1 X83.750 Y114.621 E0.2808
G1 X85.697 Y115.143 E0.3412
G1 X85.770 Y115.173 E0.3436
G1 X86.750 Y115.739 E0.3774
G1 X86.813 Y115.787 E0.3798
G1 X88.239 Y117.213 E0.4402
G1 X88.286 Y117.276 E0.4425
G1 X88.337 Y117.364 E0.4456
G1 X89.930 Y118.956 E0.5130
G1 X89.978 Y119.019 E0.5153
G1 X90.544 Y119.999 E0.5492
G1 X90.574 Y120.072 E0.5516
G1 X91.157 Y122.248 E0.6190
G1 X91.208 Y122.336 E0.6220
G1 X91.238 Y122.408 E0.6244
G1 X91.760 Y124.356 E0.6848
G1 X91.770 Y124.434 E0.6871
G1 X91.770 Y125.566 E0.7210
G1 X91.760 Y125.644 E0.7234
G1 X91.238 Y127.592 E0.7837
G1 X91.208 Y127.664 E0.7861
G1 X91.157 Y127.752 E0.7891
G1 X90.574 Y129.928 E0.8565
G1 X90.544 Y130.001 E0.8589
G1 X89.978 Y130.981 E0.8928
G1 X89.930 Y131.044 E0.8951
G1 X88.337 Y132.636 E0.9626
G1 X88.286 Y132.724 E0.9656
G1 X88.238 Y132.787 E0.9680
G1 X86.813 Y134.213 E1.0283
G1 X86.750 Y134.261 E1.0307
G1 X85.770 Y134.827 E1.0646
G1 X85.697 Y134.857 E1.0669
G1 X83.750 Y135.378 E1.1273
G1 X83.672 Y135.389 E1.1296
G1 X83.570 Y135.389 E1.1327
G1 X81.394 Y135.972 E1.2001
G1 X81.316 Y135.982 E1.2025
G1 X80.184 Y135.982 E1.2363
G1 X80.106 Y135.972 E1.2387
G1 X77.930 Y135.389 E1.3061
G1 X77.829 Y135.389 E1.3092
G1 X77.751 Y135.379 E1.3115
G1 X75.803 Y134.857 E1.3719
G1 X75.730 Y134.827 E1.3742
G1 X74.750 Y134.261 E1.4081
G1 X74.688 Y134.213 E1.4105
G1 X73.262 Y132.787 E1.4708
G1 X73.214 Y132.724 E1.4732
G1 X73.163 Y132.636 E1.4762
G1 X71.570 Y131.044 E1.5437
G1 X71.522 Y130.981 E1.5460
G1 X70.956 Y130.001 E1.5799
G1 X70.926 Y129.928 E1.5822
G1 X70.343 Y127.752 E1.6497
G1 X70.292 Y127.664 E1.6527
G1 X70.262 Y127.591 E1.6551
G1 X69.740 Y125.644 E1.7154
G1 X69.730 Y125.566 E1.7178
G1 X69.730 Y124.434 E1.7517
G1 X69.740 Y124.356 E1.7540
G1 X70.262 Y122.409 E1.8144
G1 X70.292 Y122.336 E1.8167
G1 X70.343 Y122.248 E1.8198
G1 X70.926 Y120.072 E1.8872
G1 X70.956 Y119.999 E1.8896
G1 X71.522 Y119.019 E1.9235
G1 X71.570 Y118.956 E1.9258
G1 X73.163 Y117.364 E1.9932
G1 X73.214 Y117.276 E1.9963
G1 X73.262 Y117.213 E1.9986
G1 X74.688 Y115.787 E2.0590
G1 X74.750 Y115.739 E2.0614
G1 X55.300 Y122.563 F18000
G92 E0
G1 X55.780 Y124.356 E0.0556 F2400
G1 X55.791 Y124.434 E0.0579
G1 X55.791 Y125.566 E0.0918
G1 X55.780 Y125.644 E0.0942
G1 X55.300 Y127.437 E0.1498
G1 X55.280 Y127.490 E0.1514
G1 X54.927 Y128.222 E0.1758
G1 X54.897 Y128.270 E0.1774
G1 X54.329 Y129.036 E0.2060
G1 X54.315 Y129.053 E0.2067
G1 X54.109 Y129.292 E0.2161
G1 X54.094 Y129.308 E0.2168
G1 X52.728 Y130.675 E0.2746
G1 X52.665 Y130.722 E0.2770
G1 X51.685 Y131.288 E0.3108
G1 X51.612 Y131.319 E0.3132
G1 X49.626 Y131.851 E0.3748
G1 X49.588 Y131.858 E0.3759
G1 X49.029 Y131.932 E0.3928
G1 X48.990 Y131.934 E0.3940
G1 X47.532 Y131.934 E0.4376
G1 X47.493 Y131.932 E0.4388
G1 X46.934 Y131.858 E0.4556
G1 X46.896 Y131.851 E0.4568
G1 X44.910 Y131.318 E0.5184
G1 X44.837 Y131.288 E0.5207
G1 X43.857 Y130.723 E0.5546
G1 X43.795 Y130.675 E0.5570
G1 X42.428 Y129.308 E0.6148
G1 X42.413 Y129.292 E0.6155
G1 X42.207 Y129.053 E0.6249
G1 X42.193 Y129.036 E0.6256
G1 X41.624 Y128.270 E0.6541
G1 X41.595 Y128.221 E0.6558
G1 X41.242 Y127.490 E0.6801
G1 X41.222 Y127.437 E0.6818
G1 X40.742 Y125.643 E0.7374
G1 X40.731 Y125.565 E0.7398
G1 X40.732 Y124.431 E0.7737
G1 X40.742 Y124.353 E0.7761
G1 X41.224 Y122.559 E0.8317
G1 X41.244 Y122.506 E0.8334
G1 X41.597 Y121.776 E0.8577
G1 X41.626 Y121.728 E0.8593
G1 X42.193 Y120.964 E0.8878
G1 X42.207 Y120.947 E0.8885
G1 X42.413 Y120.708 E0.8979
G1 X42.428 Y120.692 E0.8986
G1 X43.795 Y119.325 E0.9564
G1 X43.857 Y119.277 E0.9588
G1 X44.837 Y118.712 E0.9927
G1 X44.910 Y118.682 E0.9950
G1 X46.888 Y118.151 E1.0563
G1 X46.926 Y118.144 E1.0575
G1 X47.481 Y118.070 E1.0742
G1 X47.520 Y118.068 E1.0754
G1 X48.983 Y118.065 E1.1192
G1 X49.023 Y118.068 E1.1204
G1 X49.586 Y118.141 E1.1374
G1 X49.624 Y118.149 E1.1386
G1 X51.613 Y118.682 E1.2002
G1 X51.685 Y118.712 E1.2025
G1 X52.666 Y119.278 E1.2364
G1 X52.729 Y119.326 E1.2388
G1 X54.096 Y120.695 E1.2967
G1 X54.111 Y120.711 E1.2974
G1 X54.317 Y120.949 E1.3068
G1 X54.331 Y120.967 E1.3075
G1 X54.897 Y121.730 E1.3359
G1 X54.927 Y121.778 E1.3376
G1 X55.280 Y122.510 E1.3619
G1 X55.300 Y122.563 E1.3636
G1 X61.826 Y146.431 F18000
G92 E0
G1 X63.695 Y145.930 E0.0579 F2400
G1 X63.716 Y145.925 E0.0586
G1 X64.026 Y145.866 E0.0680
G1 X64.048 Y145.863 E0.0687
G1 X64.992 Y145.754 E0.0971
G1 X65.049 Y145.753 E0.0988
G1 X65.858 Y145.812 E0.1231
G1 X65.914 Y145.822 E0.1248
G1 X67.708 Y146.302 E0.1804
G1 X67.781 Y146.333 E0.1828
G1 X68.763 Y146.900 E0.2167
G1 X68.826 Y146.948 E0.2191
G1 X70.140 Y148.265 E0.2748
G1 X70.176 Y148.309 E0.2765
G1 X70.632 Y148.981 E0.3008
G1 X70.659 Y149.031 E0.3025
G1 X71.037 Y149.905 E0.3310
G1 X71.045 Y149.926 E0.3317
G1 X71.148 Y150.222 E0.3411
G1 X71.154 Y150.243 E0.3417
G1 X71.653 Y152.106 E0.3994
G1 X71.663 Y152.184 E0.4018
G1 X71.663 Y153.315 E0.4357
G1 X71.653 Y153.393 E0.4380
G1 X71.121 Y155.379 E0.4996
G1 X71.108 Y155.417 E0.5007
G1 X70.893 Y155.938 E0.5176
G1 X70.875 Y155.973 E0.5188
G1 X70.146 Y157.235 E0.5624
G1 X70.125 Y157.268 E0.5636
G1 X69.782 Y157.714 E0.5805
G1 X69.756 Y157.744 E0.5816
G1 X68.302 Y159.198 E0.6432
G1 X68.240 Y159.246 E0.6455
G1 X67.259 Y159.812 E0.6794
G1 X67.187 Y159.842 E0.6818
G1 X65.320 Y160.342 E0.7396
G1 X65.299 Y160.347 E0.7403
G1 X64.989 Y160.406 E0.7497
G1 X64.967 Y160.409 E0.7504
G1 X64.020 Y160.519 E0.7789
G1 X63.963 Y160.520 E0.7806
G1 X63.153 Y160.460 E0.8049
G1 X63.097 Y160.451 E0.8066
G1 X61.302 Y159.970 E0.8623
G1 X61.230 Y159.940 E0.8646
G1 X60.248 Y159.372 E0.8986
G1 X60.185 Y159.324 E0.9009
G1 X58.873 Y158.009 E0.9565
G1 X58.837 Y157.965 E0.9582
G1 X58.382 Y157.295 E0.9825
G1 X58.354 Y157.246 E0.9842
G1 X57.977 Y156.374 E1.0126
G1 X57.969 Y156.353 E1.0133
G1 X57.864 Y156.055 E1.0228
G1 X57.858 Y156.033 E1.0234
G1 X57.358 Y154.167 E1.0813
G1 X57.348 Y154.089 E1.0836
G1 X57.348 Y152.957 E1.1175
G1 X57.358 Y152.879 E1.1198
G1 X57.890 Y150.894 E1.1814
G1 X57.903 Y150.856 E1.1826
G1 X58.118 Y150.336 E1.1994
G1 X58.136 Y150.300 E1.2006
G1 X58.864 Y149.038 E1.2442
G1 X58.886 Y149.006 E1.2454
G1 X59.229 Y148.558 E1.2623
G1 X59.255 Y148.529 E1.2635
G1 X60.710 Y147.074 E1.3250
G1 X60.772 Y147.027 E1.3274
G1 X61.753 Y146.461 E1.3613
G1 X61.825 Y146.431 E1.3636
G1 X89.847 Y152.106 F18000
G92 E0
G1 X90.347 Y150.239 E0.0578 F2400
G1 X90.353 Y150.218 E0.0585
G1 X90.458 Y149.919 E0.0680
G1 X90.466 Y149.899 E0.0686
G1 X90.845 Y149.024 E0.0972
G1 X90.872 Y148.974 E0.0989
G1 X91.328 Y148.303 E0.1232
G1 X91.364 Y148.259 E0.1249
G1 X92.677 Y146.946 E0.1805
G1 X92.740 Y146.898 E0.1828
G1 X93.720 Y146.332 E0.2167
G1 X93.793 Y146.302 E0.2191
G1 X95.586 Y145.822 E0.2746
G1 X95.642 Y145.812 E0.2763
G1 X96.451 Y145.753 E0.3006
G1 X96.508 Y145.754 E0.3023
G1 X97.455 Y145.863 E0.3308
G1 X97.477 Y145.867 E0.3315
G1 X97.788 Y145.926 E0.3410
G1 X97.809 Y145.931 E0.3416
G1 X99.676 Y146.431 E0.3995
G1 X99.748 Y146.461 E0.4018
G1 X100.728 Y147.027 E0.4357
G1 X100.791 Y147.075 E0.4381
G1 X102.245 Y148.529 E0.4996
G1 X102.271 Y148.558 E0.5008
G1 X102.614 Y149.006 E0.5177
G1 X102.636 Y149.038 E0.5188
G1 X103.365 Y150.300 E0.5625
G1 X103.382 Y150.336 E0.5636
G1 X103.598 Y150.856 E0.5805
G1 X103.610 Y150.894 E0.5817
G1 X104.142 Y152.879 E0.6432
G1 X104.152 Y152.957 E0.6456
G1 X104.152 Y154.089 E0.6795
G1 X104.142 Y154.167 E0.6818
G1 X103.642 Y156.033 E0.7397
G1 X103.636 Y156.054 E0.7403
G1 X103.532 Y156.353 E0.7498
G1 X103.524 Y156.374 E0.7504
G1 X103.145 Y157.249 E0.7790
G1 X103.117 Y157.298 E0.7807
G1 X102.661 Y157.970 E0.8050
G1 X102.625 Y158.013 E0.8067
G1 X101.312 Y159.327 E0.8623
G1 X101.249 Y159.375 E0.8646
G1 X100.267 Y159.941 E0.8986
G1 X100.194 Y159.971 E0.9009
G1 X98.398 Y160.451 E0.9566
G1 X98.343 Y160.460 E0.9583
G1 X97.534 Y160.520 E0.9825
G1 X97.477 Y160.518 E0.9842
G1 X96.533 Y160.409 E1.0127
