; G-Code generated by Simplify3D(R) Version 3.1.0
; May 29, 2017 at 3:39:14 PM
; Settings Summary
;   processName,Process1
;   applyToModels,flexrex
;   profileName,MakerGear M2 (24V V4 hotend) (modified)
;   profileVersion,2017-05-24 15:29:13
;   baseProfile,
;   printMaterial,PLA
;   printQuality,Medium
;   printExtruders,
;   extruderName,Primary Extruder
;   extruderToolheadNumber,0
;   extruderDiameter,0.35
;   extruderAutoWidth,0
;   extruderWidth,0.4
;   extrusionMultiplier,0.9
;   extruderUseRetract,1
;   extruderRetractionDistance,1
;   extruderExtraRestartDistance,0
;   extruderRetractionZLift,0
;   extruderRetractionSpeed,2400
;   extruderUseCoasting,0
;   extruderCoastingDistance,0.2
;   extruderUseWipe,0
;   extruderWipeDistance,5
;   primaryExtruder,0
;   layerHeight,0.2
;   topSolidLayers,4
;   bottomSolidLayers,3
;   perimeterOutlines,1
;   printPerimetersInsideOut,1
;   startPointOption,2
;   startPointOriginX,0
;   startPointOriginY,0
;   startPointOriginZ,300
;   sequentialIslands,0
;   spiralVaseMode,0
;   firstLayerHeightPercentage,90
;   firstLayerWidthPercentage,100
;   firstLayerUnderspeed,0.5
;   useRaft,0
;   raftExtruder,0
;   raftLayers,3
;   raftOffset,3
;   raftSeparationDistance,0.14
;   raftInfill,85
;   disableRaftBaseLayers,0
;   useSkirt,1
;   skirtExtruder,0
;   skirtLayers,1
;   skirtOutlines,2
;   skirtOffset,4
;   usePrimePillar,0
;   primePillarExtruder,999
;   primePillarWidth,12
;   primePillarLocation,7
;   primePillarSpeedMultiplier,1
;   useOozeShield,0
;   oozeShieldExtruder,999
;   oozeShieldOffset,2
;   oozeShieldOutlines,1
;   oozeShieldSidewallShape,1
;   oozeShieldSidewallAngle,30
;   oozeShieldSpeedMultiplier,1
;   infillExtruder,0
;   internalInfillPattern,Rectilinear
;   externalInfillPattern,Rectilinear
;   infillPercentage,20
;   outlineOverlapPercentage,15
;   infillExtrusionWidthPercentage,100
;   minInfillLength,5
;   infillLayerInterval,1
;   infillAngles,45,-45
;   overlapInfillAngles,0
;   generateSupport,0
;   supportExtruder,0
;   supportInfillPercentage,30
;   supportExtraInflation,0
;   denseSupportLayers,0
;   denseSupportInfillPercentage,70
;   supportLayerInterval,1
;   supportHorizontalPartOffset,0.3
;   supportUpperSeparationLayers,1
;   supportLowerSeparationLayers,1
;   supportType,0
;   supportGridSpacing,4
;   maxOverhangAngle,45
;   supportAngles,0
;   temperatureName,Primary Extruder,Heated Bed
;   temperatureNumber,0,2
;   temperatureSetpointCount,1,1
;   temperatureSetpointLayers,1,1
;   temperatureSetpointTemperatures,215,70
;   temperatureStabilizeAtStartup,1,1
;   temperatureHeatedBed,0,1
;   temperatureRelayBetweenLayers,0,0
;   temperatureRelayBetweenLoops,0,0
;   fanLayers,1,2
;   fanSpeeds,0,100
;   blipFanToFullPower,1
;   adjustSpeedForCooling,1
;   minSpeedLayerTime,15
;   minCoolingSpeedSlowdown,20
;   increaseFanForCooling,0
;   minFanLayerTime,45
;   maxCoolingFanSpeed,100
;   increaseFanForBridging,0
;   bridgingFanSpeed,100
;   use5D,1
;   relativeEdistances,0
;   allowEaxisZeroing,1
;   independentExtruderAxes,0
;   includeM10123,0
;   stickySupport,1
;   applyToolheadOffsets,0
;   gcodeXoffset,0
;   gcodeYoffset,0
;   gcodeZoffset,0
;   overrideMachineDefinition,1
;   machineTypeOverride,0
;   strokeXoverride,200
;   strokeYoverride,250
;   strokeZoverride,200
;   originOffsetXoverride,0
;   originOffsetYoverride,0
;   originOffsetZoverride,0
;   homeXdirOverride,-1
;   homeYdirOverride,-1
;   homeZdirOverride,-1
;   flipXoverride,1
;   flipYoverride,-1
;   flipZoverride,1
;   toolheadOffsets,0,0|0,0|0,0|0,0|0,0|0,0
;   overrideFirmwareConfiguration,1
;   firmwareTypeOverride,RepRap (Marlin/Repetier/Sprinter)
;   GPXconfigOverride,r2
;   baudRateOverride,115200
;   overridePrinterModels,1
;   printerModelsOverride,MakerGear_M2Single.stl
;   startingGcode,M108 S255 ; turn on M2 fans,G28 ; home all axes,G1 Y50 Z0.3 F9600 ; move forward to avoid binder clips,G1 X205 Z10 ; move off platform,G1 Z0.4 ; position nozzle,G92 E0 ; zero extruder,G1 E25 F225 ; purge nozzle,G92 E0 ; zero extruder,G1 X190 Z0.1 E1.0 F1200 ; slow wipe,G1 X180 Z0.25 ; lift
;   layerChangeGcode,
;   retractionGcode,
;   toolChangeGcode,
;   endingGcode,M104 S0 ; turn off extruder,M140 S0 ; turn off bed,G91 ; relative mode,G1 Z10 ; lift 10mm,G90 ; absolute mode,G28 X0 ; home X axis,M84 ; disable motors
;   exportFileFormat,gcode
;   celebration,0
;   celebrationSong,Random Song
;   postProcessing,
;   defaultSpeed,4800
;   outlineUnderspeed,0.6
;   solidInfillUnderspeed,0.8
;   supportUnderspeed,0.8
;   rapidXYspeed,18000
;   rapidZspeed,1200
;   minBridgingArea,50
;   bridgingExtraInflation,0
;   bridgingExtrusionMultiplier,1
;   bridgingSpeedMultiplier,1
;   filamentDiameter,1.75
;   filamentPricePerKg,35
;   filamentDensity,1.25
;   useMinPrintHeight,0
;   minPrintHeight,0
;   useMaxPrintHeight,0
;   maxPrintHeight,0
;   useDiaphragm,0
;   diaphragmLayerInterval,20
;   robustSlicing,1
;   mergeAllIntoSolid,0
;   onlyRetractWhenCrossingOutline,1
;   retractBetweenLayers,1
;   useRetractionMinTravel,0
;   retractionMinTravel,3
;   retractWhileWiping,0
;   onlyWipeOutlines,1
;   avoidCrossingOutline,0
;   maxMovementDetourFactor,3
;   toolChangeRetractionDistance,12
;   toolChangeExtraRestartDistance,-0.5
;   toolChangeRetractionSpeed,600
;   allowThinWallGapFill,1
;   thinWallAllowedOverlapPercentage,10
;   horizontalSizeCompensation,0
G90
M82
M106 S0
M140 S70
M190 S70
M104 S215 T0
M109 S215 T0
M108 S255 ; turn on M2 fans
G28 ; home all axes
G1 Y50 Z0.3 F9600 ; move forward to avoid binder clips
G1 X205 Z10 ; move off platform
G1 Z0.4 ; position nozzle
G92 E0 ; zero extruder
G1 E25 F225 ; purge nozzle
G92 E0 ; zero extruder
G1 X190 Z0.1 E1.0 F1200 ; slow wipe
G1 X180 Z0.25 ; lift
G92 E0
G1 E-1.0000 F2400
G1 Z0.180 F1200
; layer 1, Z = 0.18
T0
; tool H0.200 W0.400
; skirt
G1 X57.225 Y87.221 F18000
G1 E0.0000 F720
G92 E0
G1 X57.489 Y87.080 E0.0090 F2400
G1 X72.207 Y87.080 E0.4495
G1 X81.986 Y87.080 E0.7423
G1 X90.177 Y87.080 E0.9875
G1 X90.275 Y87.097 E0.9904
G1 X91.628 Y87.559 E1.0332
G1 X91.715 Y87.606 E1.0362
G1 X93.447 Y88.949 E1.1018
G1 X93.454 Y88.950 E1.1020
G1 X95.733 Y90.713 E1.1882
G1 X96.400 Y88.850 E1.2475
G1 X96.512 Y88.703 E1.2530
G1 X98.736 Y87.136 E1.3344
G1 X98.912 Y87.080 E1.3400
G1 X122.963 Y87.080 E2.0599
G1 X123.161 Y87.152 E2.0662
G1 X125.549 Y89.145 E2.1593
G1 X125.655 Y89.327 E2.1656
G1 X126.595 Y94.492 E2.3228
G1 X126.594 Y94.608 E2.3263
G1 X126.245 Y96.261 E2.3768
G1 X126.199 Y96.368 E2.3803
G1 X122.403 Y101.963 E2.5827
G1 X122.324 Y102.042 E2.5861
G1 X120.996 Y102.958 E2.6343
G1 X120.894 Y103.003 E2.6377
G1 X120.502 Y103.096 E2.6498
G1 X123.364 Y103.890 E2.7387
G1 X123.540 Y104.018 E2.7452
G1 X125.310 Y106.700 E2.8414
G1 X125.359 Y106.912 E2.8479
G1 X125.122 Y108.678 E2.9012
G1 X126.188 Y108.486 E2.9337
G1 X126.355 Y108.502 E2.9387
G1 X128.628 Y109.398 E3.0118
G1 X128.761 Y109.500 E3.0168
G1 X133.476 Y115.823 E3.2529
G1 X133.530 Y115.943 E3.2569
G1 X133.915 Y117.817 E3.3142
G1 X133.913 Y117.949 E3.3181
G1 X133.125 Y121.235 E3.4193
G1 X133.049 Y121.375 E3.4240
G1 X131.447 Y123.051 E3.4934
G1 X131.311 Y123.134 E3.4982
G1 X128.625 Y123.909 E3.5819
G1 X139.730 Y127.711 E3.9333
G1 X139.812 Y127.754 E3.9360
G1 X140.885 Y128.549 E3.9760
G1 X140.950 Y128.614 E3.9788
G1 X143.859 Y132.649 E4.1277
G1 X143.914 Y132.784 E4.1320
G1 X144.213 Y134.879 E4.1953
G1 X144.198 Y135.023 E4.1997
G1 X141.940 Y141.386 E4.4018
G1 X143.326 Y141.994 E4.4471
G1 X143.466 Y142.119 E4.4527
G1 X144.873 Y144.485 E4.5351
G1 X144.915 Y144.668 E4.5408
G1 X143.814 Y157.736 E4.9333
G1 X143.769 Y157.872 E4.9376
G1 X142.662 Y159.638 E5.0000
G1 X142.559 Y159.738 E5.0043
G1 X137.567 Y162.696 E5.1780
G1 X137.451 Y162.736 E5.1817
G1 X135.694 Y162.962 E5.2347
G1 X135.572 Y162.953 E5.2384
G1 X105.283 Y154.302 E6.1813
G1 X105.147 Y154.221 E6.1860
G1 X103.545 Y152.561 E6.2551
G1 X103.468 Y152.422 E6.2598
G1 X99.077 Y134.707 E6.8062
G1 X97.317 Y128.700 E6.9935
G1 X93.769 Y124.665 E7.1544
G1 X93.764 Y124.662 E7.1545
G1 X89.296 Y119.580 E7.3571
G1 X89.290 Y119.577 E7.3573
G1 X83.874 Y113.417 E7.6028
G1 X83.874 Y113.416 E7.6029
G1 X79.466 Y108.408 E7.8026
G1 X79.463 Y108.401 E7.8028
G1 X78.667 Y107.496 E7.8389
G1 X75.036 Y105.616 E7.9613
G1 X68.759 Y102.360 E8.1729
G1 X68.743 Y102.344 E8.1736
G1 X57.589 Y96.825 E8.5461
G1 X57.502 Y96.760 E8.5494
G1 X56.432 Y95.611 E8.5964
G1 X56.373 Y95.519 E8.5996
G1 X54.650 Y91.311 E8.7358
G1 X54.681 Y91.012 E8.7447
G1 X57.225 Y87.222 E8.8814
G1 X57.501 Y87.527 F18000
G92 E0
G1 X57.589 Y87.480 E0.0030 F2400
G1 X72.286 Y87.480 E0.4429
G1 X81.906 Y87.480 E0.7309
G1 X90.144 Y87.480 E0.9775
G1 X90.177 Y87.486 E0.9785
G1 X91.467 Y87.927 E1.0193
G1 X91.496 Y87.943 E1.0203
G1 X93.269 Y89.316 E1.0874
G1 X93.276 Y89.318 E1.0876
G1 X95.924 Y91.367 E1.1879
G1 X96.755 Y89.043 E1.2617
G1 X96.793 Y88.994 E1.2636
G1 X98.915 Y87.499 E1.3413
G1 X98.974 Y87.480 E1.3431
G1 X122.893 Y87.480 E2.0591
G1 X122.959 Y87.504 E2.0612
G1 X125.239 Y89.407 E2.1501
G1 X125.274 Y89.468 E2.1522
G1 X126.195 Y94.525 E2.3061
G1 X126.194 Y94.564 E2.3073
G1 X125.861 Y96.140 E2.3555
G1 X125.846 Y96.176 E2.3567
G1 X122.093 Y101.708 E2.5568
G1 X122.067 Y101.734 E2.5579
G1 X120.800 Y102.608 E2.6039
G1 X120.766 Y102.623 E2.6050
G1 X118.782 Y103.092 E2.6661
G1 X118.787 Y103.098 E2.6663
G1 X118.819 Y103.268 E2.6715
G1 X119.302 Y103.188 E2.6861
G1 X119.346 Y103.191 E2.6875
G1 X123.187 Y104.256 E2.8068
G1 X123.246 Y104.299 E2.8089
G1 X124.936 Y106.860 E2.9008
G1 X124.953 Y106.931 E2.9030
G1 X124.652 Y109.169 E2.9706
G1 X126.204 Y108.889 E3.0178
G1 X126.260 Y108.895 E3.0195
G1 X128.429 Y109.750 E3.0893
G1 X128.473 Y109.784 E3.0910
G1 X133.129 Y116.027 E3.3241
G1 X133.147 Y116.067 E3.3254
G1 X133.515 Y117.855 E3.3800
G1 X133.514 Y117.899 E3.3813
G1 X132.748 Y121.090 E3.4796
G1 X132.723 Y121.137 E3.4812
G1 X131.195 Y122.736 E3.5474
G1 X131.149 Y122.764 E3.5490
G1 X127.295 Y123.876 E3.6691
G1 X139.572 Y128.079 E4.0575
G1 X139.599 Y128.093 E4.0584
G1 X140.622 Y128.851 E4.0966
G1 X140.643 Y128.873 E4.0975
G1 X143.506 Y132.843 E4.2440
G1 X143.525 Y132.888 E4.2454
G1 X143.810 Y134.887 E4.3059
G1 X143.805 Y134.935 E4.3073
G1 X141.438 Y141.602 E4.5191
G1 X143.108 Y142.335 E4.5737
G1 X143.154 Y142.377 E4.5756
G1 X144.498 Y144.635 E4.6542
G1 X144.512 Y144.696 E4.6561
G1 X143.419 Y157.655 E5.0454
G1 X143.404 Y157.700 E5.0468
G1 X142.348 Y159.385 E5.1063
G1 X142.314 Y159.418 E5.1078
G1 X137.398 Y162.331 E5.2788
G1 X137.360 Y162.344 E5.2800
G1 X135.684 Y162.560 E5.3306
G1 X135.643 Y162.557 E5.3318
G1 X105.444 Y153.932 E6.2720
G1 X105.399 Y153.905 E6.2735
G1 X103.870 Y152.321 E6.3394
G1 X103.844 Y152.275 E6.3410
G1 X99.463 Y134.602 E6.8860
G1 X97.676 Y128.502 E7.0763
G1 X94.020 Y124.345 E7.2420
G1 X94.015 Y124.342 E7.2422
G1 X89.543 Y119.254 E7.4450
G1 X89.537 Y119.252 E7.4452
G1 X84.224 Y113.209 E7.6860
G1 X84.223 Y113.207 E7.6861
G1 X79.810 Y108.193 E7.8860
G1 X79.807 Y108.186 E7.8863
G1 X78.918 Y107.176 E7.9265
G1 X75.284 Y105.294 E8.0490
G1 X69.001 Y102.035 E8.2609
G1 X68.983 Y102.016 E8.2616
G1 X57.799 Y96.482 E8.6352
G1 X57.770 Y96.461 E8.6363
G1 X56.749 Y95.365 E8.6811
G1 X56.730 Y95.334 E8.6822
G1 X55.058 Y91.252 E8.8142
G1 X55.068 Y91.152 E8.8172
G1 X57.501 Y87.527 E8.9479
G92 E0
G1 E-1.0000 F2400
; outer perimeter
G1 X60.070 Y91.880 F18000
G1 E0.0000 F2400
G92 E0
G1 X70.855 Y91.880 E0.3228 F1440
G1 X70.632 Y93.055 E0.3586
G1 X70.648 Y93.275 E0.3652
G1 X70.719 Y93.484 E0.3718
G1 X70.783 Y93.594 E0.3756
G1 X70.924 Y93.753 E0.3820
G1 X71.113 Y93.880 E0.3888
G1 X71.316 Y93.948 E0.3952
G1 X73.443 Y94.367 E0.4601
G1 X73.635 Y94.423 E0.4661
G1 X73.803 Y94.488 E0.4715
G1 X73.487 Y96.123 E0.5214
G1 X73.307 Y96.121 E0.5268
G1 X73.108 Y96.101 E0.5327
G1 X70.978 Y95.696 E0.5976
G1 X70.772 Y95.683 E0.6038
G1 X70.556 Y95.726 E0.6104
G1 X70.438 Y95.775 E0.6142
G1 X70.256 Y95.898 E0.6208
G1 X70.111 Y96.064 E0.6274
G1 X70.011 Y96.268 E0.6342
G1 X69.768 Y97.496 E0.6717
G1 X60.489 Y92.904 E0.9816
G1 X60.070 Y91.880 E1.0147
; solid layer
G1 X60.979 Y92.767 F18000
G92 E0
G1 X60.677 Y92.465 E0.0128 F1920
G1 X60.577 Y92.220 E0.0207
G1 X60.998 Y92.220 E0.0333
G1 X62.099 Y93.321 E0.0799
G1 X63.218 Y93.875 E0.1173
G1 X61.564 Y92.220 E0.1874
G1 X62.129 Y92.220 E0.2043
G1 X64.338 Y94.429 E0.2978
G1 X65.458 Y94.983 E0.3352
G1 X62.695 Y92.220 E0.4522
G1 X63.261 Y92.220 E0.4691
G1 X66.578 Y95.538 E0.6095
G1 X67.698 Y96.092 E0.6469
G1 X63.826 Y92.220 E0.8108
G1 X64.392 Y92.220 E0.8278
G1 X68.817 Y96.646 E1.0151
G1 X69.521 Y96.994 E1.0386
G1 X69.556 Y96.818 E1.0439
G1 X64.958 Y92.220 E1.2386
G1 X65.523 Y92.220 E1.2555
G1 X69.649 Y96.346 E1.4302
G1 X69.686 Y96.158 E1.4359
G1 X69.798 Y95.930 E1.4435
G1 X66.089 Y92.220 E1.6005
G1 X66.655 Y92.220 E1.6175
G1 X70.057 Y95.622 E1.7615
G1 X70.277 Y95.474 E1.7694
G1 X70.416 Y95.416 E1.7740
G1 X67.220 Y92.220 E1.9092
G1 X67.786 Y92.220 E1.9262
G1 X70.917 Y95.352 E2.0587
G1 X71.020 Y95.358 E2.0618
G1 X71.600 Y95.468 E2.0795
G1 X68.352 Y92.220 E2.2169
G1 X70.049 Y92.220 F18000
G92 E0
G1 X70.381 Y92.553 E0.0141 F1920
G1 X70.291 Y93.029 E0.0286
G1 X69.483 Y92.220 E0.0628
G1 X68.917 Y92.220 E0.0797
G1 X70.620 Y93.922 E0.1518
G1 X70.698 Y94.011 E0.1553
G1 X70.730 Y94.033 E0.1565
G1 X72.298 Y95.601 E0.2229
G1 X72.997 Y95.734 E0.2442
G1 X71.617 Y94.354 E0.3026
G1 X72.321 Y94.493 E0.3241
G1 X73.272 Y95.444 E0.3643
G1 X73.364 Y94.970 E0.3788
G1 X73.025 Y94.631 E0.3931
G92 E0
G1 E-1.0000 F2400
; outer perimeter
G1 X73.730 Y92.664 F18000
G1 E0.0000 F2400
G92 E0
G1 X73.900 Y91.880 E0.0240 F1440
G1 X79.532 Y91.880 E0.1926
G1 X78.368 Y95.301 E0.3007
G1 X78.328 Y95.506 E0.3070
G1 X78.344 Y95.733 E0.3138
G1 X78.418 Y95.947 E0.3206
G1 X78.542 Y96.130 E0.3272
G1 X78.708 Y96.275 E0.3338
G1 X78.818 Y96.337 E0.3376
G1 X80.941 Y97.072 E0.4048
G1 X81.116 Y97.150 E0.4105
G1 X81.290 Y97.245 E0.4165
G1 X80.753 Y98.821 E0.4663
G1 X80.557 Y98.790 E0.4722
G1 X80.371 Y98.745 E0.4780
G1 X78.226 Y98.028 E0.5457
G1 X78.006 Y98.014 E0.5523
G1 X77.880 Y98.031 E0.5561
G1 X77.673 Y98.104 E0.5627
G1 X77.495 Y98.223 E0.5691
G1 X77.410 Y98.309 E0.5727
G1 X77.338 Y98.405 E0.5763
G1 X77.250 Y98.584 E0.5822
G1 X76.448 Y100.940 E0.6568
G1 X72.394 Y98.838 E0.7934
G1 X72.626 Y97.766 E0.8263
G1 X76.374 Y98.486 E0.9405
G1 X76.594 Y98.469 E0.9471
G1 X76.717 Y98.435 E0.9509
G1 X76.912 Y98.335 E0.9575
G1 X77.072 Y98.192 E0.9639
G1 X77.144 Y98.096 E0.9675
G1 X77.203 Y97.991 E0.9711
G1 X77.266 Y97.802 E0.9771
G1 X77.936 Y94.334 E1.0828
G1 X77.948 Y94.132 E1.0889
G1 X77.931 Y94.013 E1.0925
G1 X77.898 Y93.897 E1.0961
G1 X77.798 Y93.701 E1.1027
G1 X77.655 Y93.542 E1.1091
G1 X77.559 Y93.469 E1.1127
G1 X77.454 Y93.411 E1.1163
G1 X77.265 Y93.348 E1.1222
G1 X73.730 Y92.664 E1.2300
; solid layer
G1 X74.196 Y92.407 F18000
G92 E0
G1 X74.145 Y92.356 E0.0022 F1920
G1 X74.174 Y92.220 E0.0063
G1 X74.574 Y92.220 E0.0183
G1 X74.897 Y92.543 E0.0320
G1 X75.598 Y92.679 E0.0534
G1 X75.140 Y92.220 E0.0728
G1 X75.706 Y92.220 E0.0897
G1 X76.300 Y92.815 E0.1149
G1 X77.001 Y92.950 E0.1362
G1 X76.271 Y92.220 E0.1671
G1 X76.837 Y92.220 E0.1841
G1 X78.493 Y93.877 E0.2542
G1 X78.637 Y93.455 E0.2675
G1 X77.403 Y92.220 E0.3198
G1 X77.968 Y92.220 E0.3367
G1 X78.780 Y93.032 E0.3711
G1 X78.924 Y92.610 E0.3844
G1 X78.534 Y92.220 E0.4009
G1 X78.283 Y94.232 F18000
G92 E0
G1 X78.350 Y94.299 E0.0028 F1920
G92 E0
G1 E-1.0000 F2400
G1 X80.039 Y97.119 F18000
G1 E0.0000 F2400
G92 E0
G1 X80.736 Y97.816 E0.0295 F1920
G1 X80.592 Y98.238 E0.0429
G1 X79.174 Y96.820 E0.1029
G1 X78.677 Y96.648 E0.1186
G1 X78.511 Y96.554 E0.1244
G1 X78.285 Y96.357 E0.1333
G1 X78.111 Y96.100 E0.1426
G1 X78.008 Y95.802 E0.1521
G1 X78.005 Y95.768 E0.1531
G1 X77.933 Y96.144 E0.1646
G1 X80.076 Y98.288 E0.2553
G1 X79.226 Y98.004 E0.2821
G1 X77.841 Y96.618 E0.3408
G1 X77.749 Y97.092 E0.3552
G1 X78.376 Y97.719 E0.3818
G1 X78.292 Y97.691 E0.3844
G1 X77.993 Y97.673 E0.3934
G1 X77.800 Y97.699 E0.3992
G1 X77.793 Y97.702 E0.3995
G1 X77.657 Y97.566 E0.4052
G1 X76.636 Y98.807 F18000
G92 E0
G1 X76.769 Y98.941 E0.0056 F1920
G1 X76.625 Y99.363 E0.0190
G1 X76.029 Y98.766 E0.0442
G1 X75.329 Y98.632 E0.0656
